X:30
T:Rodney's Glory
R:hornpipe
M:4/4
L:1/8
K:G
ed |: c2Bc ABcA | (3BAG EF G4 | e=fed cde^f | gfge d=fed |
c2Bc ABcA | (3BAG EF G2ed | c2BA GABG | ~A3B A2ed ::
eaag abag | eged c3d | (3efg fg agec | dcAF G4 |
AGAB cBcd | ed(3efg a4 | aged cdef | gfge d=fed |
c2Bc ABcA | (3BAG EF G2ed | c2BA GABG | ~A3B A2ed :|
